images/ICONOS/EXPERIENCIA/CAPACITACION ICON.svg

<svg width="42" height="33" viewBox="0 0 42 33" fill="none" xmlns="http://www.w3.org/2000/svg">
<path d="M41.9985 11.1621C41.6587 11.958 41.0183 12.4033 40.2741 12.7646C38.6009 13.5743 36.9472 14.4236 35.2769 15.2394C35.0138 15.3674 34.9356 15.5184 34.9356 15.8051C34.9462 18.9095 34.9326 22.014 34.9507 25.1185C34.9537 25.5988 34.8109 25.9678 34.5072 26.3185C31.9319 29.3071 28.7237 31.2146 24.9006 32.0212C21.1467 32.8125 17.4664 32.5213 13.9034 31.0423C11.3176 29.9703 9.11818 28.348 7.30812 26.1858C7.07209 25.9037 6.97888 25.6079 6.97888 25.2404C6.9879 22.0811 6.98038 18.9202 6.9909 15.7608C6.99241 15.4711 6.90972 15.3217 6.64513 15.1997C5.92802 14.8673 5.22745 14.5014 4.47275 14.1247C4.45922 14.2803 4.44268 14.3946 4.44268 14.509C4.44118 16.5736 4.44268 18.6396 4.44118 20.7042C4.44118 20.8994 4.43366 21.0534 4.66218 21.1754C5.49354 21.6176 5.93253 22.3281 5.92201 23.2918C5.90998 24.2493 5.4725 24.9507 4.63812 25.3975C4.60354 25.4158 4.57498 25.4478 4.51034 25.5012C5.21993 27.7899 5.93253 30.0893 6.65565 32.4237C4.62309 32.4237 2.6251 32.4237 0.586526 32.4237C1.30364 30.1091 2.01624 27.8082 2.73034 25.5058C2.51536 25.3502 2.30188 25.2237 2.12147 25.0605C0.899228 23.9581 1.08414 22.0475 2.50183 21.2257C2.74086 21.0869 2.80851 20.9405 2.80701 20.6768C2.79799 18.3484 2.79198 16.0201 2.81152 13.6917C2.81453 13.3502 2.68373 13.2144 2.41613 13.0803C1.86891 12.8043 1.29762 12.5481 0.809026 12.1822C-0.279418 11.3664 -0.261377 10.0825 0.813536 9.24542C1.06009 9.0533 1.33972 8.89929 1.62235 8.76206C7.16981 6.06929 12.7128 3.37499 18.2662 0.703559C20.2311 -0.241809 22.2216 -0.237235 24.1865 0.734055C29.516 3.36889 34.8379 6.01897 40.1719 8.64466C40.9822 9.04415 41.6963 9.49854 42 10.4149C41.9985 10.6635 41.9985 10.912 41.9985 11.1621ZM1.45698 10.7778C1.76066 10.9776 1.95159 11.1285 2.16507 11.2383C2.577 11.4518 2.99343 11.6622 3.4249 11.833C3.66845 11.929 3.94657 11.9961 4.20515 11.9824C4.74937 11.9534 5.28908 11.862 5.8303 11.7964C7.80724 11.5585 9.78568 11.3191 11.7626 11.0828C13.5095 10.8724 15.2565 10.665 17.0049 10.4546C18.2512 10.3051 19.496 10.145 20.7438 10.0078C21.3346 9.94225 21.6954 10.1984 21.745 10.665C21.7976 11.1423 21.518 11.4533 20.9197 11.5418C20.3664 11.6226 19.8087 11.6729 19.2539 11.7384C17.519 11.9428 15.7856 12.1456 14.0523 12.3514C12.2783 12.5618 10.5028 12.7753 8.72881 12.9873C7.98313 13.0772 7.23896 13.1687 6.37903 13.2739C6.60604 13.3883 6.72631 13.4477 6.84658 13.5072C10.8516 15.4574 14.8566 17.4107 18.8646 19.3532C20.41 20.1019 21.9615 20.1095 23.5115 19.341C27.1692 17.5311 30.8284 15.7273 34.4861 13.9174C36.2376 13.0498 37.9875 12.1791 39.7329 11.2993C40.0005 11.1636 40.2365 10.9639 40.5748 10.7336C40.2651 10.5293 40.0757 10.3722 39.8622 10.267C34.3659 7.53918 28.8695 4.80676 23.3642 2.09874C21.975 1.41564 20.5078 1.39276 19.1231 2.0591C13.4329 4.79762 7.76514 7.57883 2.0914 10.3478C1.90198 10.4409 1.73811 10.5857 1.45698 10.7778ZM33.3902 16.1192C33.1842 16.2152 33.0489 16.2747 32.9166 16.3403C30.0151 17.7812 27.1106 19.2114 24.2166 20.6661C22.1795 21.6892 20.1499 21.6648 18.1174 20.6844C15.0896 19.2236 12.0678 17.7507 9.04301 16.2854C8.91372 16.2229 8.78142 16.168 8.6371 16.1039C8.61605 16.1908 8.59801 16.2305 8.59801 16.2701C8.59651 19.1947 8.592 22.1177 8.60403 25.0422C8.60403 25.2008 8.69423 25.396 8.80698 25.5103C9.37676 26.0867 9.93602 26.6814 10.5539 27.1998C13.2134 29.4306 16.3028 30.6062 19.7245 30.8623C21.3045 30.9797 22.8861 30.8898 24.4481 30.5528C27.8908 29.8102 30.8164 28.1589 33.1677 25.492C33.2955 25.3472 33.3781 25.1063 33.3797 24.9096C33.3947 22.5812 33.3887 20.2529 33.3887 17.926C33.3902 17.3436 33.3902 16.7642 33.3902 16.1192Z" fill="url(#paint0_linear_1_1969)"/>
<defs>
<linearGradient id="paint0_linear_1_1969" x1="0" y1="32.4508" x2="42" y2="32.4508" gradientUnits="userSpaceOnUse">
<stop stop-color="#1723FF"/>
<stop offset="1" stop-color="#30E35E"/>
</linearGradient>
</defs>
</svg>

<svg xmlns="http://www.w3.org/2000/svg" width="42" height="33" fill="none"><path fill="url(#a)" d="M41.998 11.162c-.34.796-.98 1.241-1.724 1.603-1.673.81-3.327 1.659-4.997 2.474-.263.128-.341.28-.341.566.01 3.105-.003 6.209.015 9.314.003.48-.14.849-.444 1.2-2.575 2.988-5.783 4.896-9.606 5.702-3.754.791-7.435.5-10.998-.979a16.965 16.965 0 0 1-6.595-4.856c-.236-.282-.33-.578-.33-.946.01-3.159.002-6.32.013-9.48.001-.289-.081-.438-.346-.56-.717-.333-1.418-.699-2.172-1.075-.014.155-.03.27-.03.384-.002 2.065 0 4.13-.002 6.195 0 .195-.007.35.221.471.832.443 1.27 1.153 1.26 2.117-.012.957-.45 1.659-1.284 2.105-.034.019-.063.05-.128.104l2.146 6.923H.586l2.144-6.918c-.215-.156-.428-.282-.609-.445-1.222-1.103-1.037-3.014.38-3.835.24-.14.308-.285.306-.55a569.47 569.47 0 0 1 .005-6.984c.003-.342-.128-.478-.396-.612-.547-.276-1.118-.532-1.607-.898-1.088-.816-1.07-2.1.005-2.937.246-.192.526-.346.808-.483C7.17 6.07 12.712 3.375 18.266.704c1.965-.946 3.956-.941 5.92.03 5.33 2.635 10.652 5.285 15.986 7.91.81.4 1.524.855 1.828 1.77-.002.25-.002.498-.002.748Zm-40.541-.384c.304.2.495.35.708.46.412.214.828.424 1.26.595.243.096.522.163.78.15.544-.03 1.084-.121 1.625-.187 1.977-.237 3.956-.477 5.933-.713l5.242-.628c1.246-.15 2.491-.31 3.739-.447.59-.066.951.19 1.001.657.053.477-.227.788-.825.877-.554.08-1.111.13-1.666.196l-5.202.613c-1.774.21-3.55.424-5.323.636-.746.09-1.49.182-2.35.287.227.114.347.174.468.233 4.005 1.95 8.01 3.904 12.018 5.846 1.545.749 3.097.756 4.647-.012 3.657-1.81 7.316-3.614 10.974-5.424a840.26 840.26 0 0 0 5.247-2.618c.268-.135.504-.335.842-.565-.31-.205-.5-.362-.713-.467-5.496-2.728-10.993-5.46-16.498-8.168-1.389-.683-2.856-.706-4.24-.04C13.432 4.798 7.764 7.58 2.09 10.348c-.189.093-.353.238-.634.43Zm31.933 5.341c-.206.096-.341.156-.473.221-2.902 1.441-5.806 2.871-8.7 4.326-2.037 1.023-4.067.999-6.1.018-3.027-1.46-6.05-2.933-9.074-4.399-.13-.062-.262-.117-.406-.181-.021.087-.039.127-.039.166-.001 2.925-.006 5.848.006 8.772 0 .159.09.354.203.468.57.577 1.129 1.171 1.747 1.69 2.66 2.23 5.749 3.406 9.17 3.662 1.58.118 3.162.028 4.724-.31 3.443-.742 6.368-2.393 8.72-5.06a.965.965 0 0 0 .212-.582c.015-2.329.009-4.657.009-6.984l.001-1.807Z"/><defs><linearGradient id="a" x1="0" x2="42" y1="32.451" y2="32.451" gradientUnits="userSpaceOnUse"><stop stop-color="#1723FF"/><stop offset="1" stop-color="#30E35E"/></linearGradient></defs></svg>
